X:40
T:T025A- St. Patrick's Day
S:Oswald's Caledonian Pocket Companion, bk. 11, c 1759-60
M:C
J:1#G
L:1/4
K:G
D/2E/2 GG(A/2B/2)|d3/2e/2 (d/2B/2)(A/2G/2)|\
B(A/2B/2) (c/2B/2)(A/2G/2)|EE~E3/2D/2|\
(D/2E/2)G(G/2A/2)(B/2c/2)|d3/2e/2 (d/2B/2)(A/2G/2)|\
B(A/2B/2) (c/2B/2)(A/2G/2)|EGG2::\
d(e/2g/2)g3/2f/2|(g/2f/2)(e/2d/2)~e(d/2B/2)|\
d(e/2g/2)g3/2f/2|(g/2f/2)(e/2d/2)e3/2g/2|\
(d/2B/2)(A/2G/2)G(A/2B/2)|d3/2e/2 (d/2B/2)(A/2G/2)|\
g3/2e/2 (d/2B/2)(A/2G/2)|EEE3/2G/2|\
(D/2E/2)G(G/2A/2)(B/2d/2)|(e/2c/2)(B/2G/2) (d/2B/2)(A/2G/2)|\
BA/2B/2 (c/2B/2)(A/2G/2)|EGG2:|]

